X: 120
T: Is Not This Pleasant?
N:"Gaily"
B:O'Neill's 120
Z:Transcribed by henrik.norbeck@mailbox.swipnet.se
M:6/8
L:1/8
K:G
G | B>cd (c<A)d | B2 G G2 B | d>ef (g<e)g | f2 d d2 d |
geg fdB | c2 e dBG | B>cd g2 e | =f2 d c>AF |\
G>AB c2d | {AB}A2 G G2 |]


